assets/icons/feather/server.svg

<?xml version="1.0" encoding="UTF-8" standalone="no"?>
<!DOCTYPE svg PUBLIC "-//W3C//DTD SVG 1.1//EN" "http://www.w3.org/Graphics/SVG/1.1/DTD/svg11.dtd">
<svg width="100%" height="100%" viewBox="0 0 24 24" version="1.1" xmlns="http://www.w3.org/2000/svg" xmlns:xlink="http://www.w3.org/1999/xlink" xml:space="preserve" xmlns:serif="http://www.serif.com/" style="fill-rule:evenodd;clip-rule:evenodd;stroke-linecap:round;stroke-linejoin:round;">
    <path d="M22,4C22,2.896 21.104,2 20,2L4,2C2.896,2 2,2.896 2,4L2,8C2,9.104 2.896,10 4,10L20,10C21.104,10 22,9.104 22,8L22,4Z" style="fill:none;stroke:white;stroke-width:2px;"/>
    <path d="M22,16C22,14.896 21.104,14 20,14L4,14C2.896,14 2,14.896 2,16L2,20C2,21.104 2.896,22 4,22L20,22C21.104,22 22,21.104 22,20L22,16Z" style="fill:none;stroke:white;stroke-width:2px;"/>
    <path d="M6,6L6.01,6" style="fill:none;stroke:white;stroke-width:2px;"/>
    <path d="M6,18L6.01,18" style="fill:none;stroke:white;stroke-width:2px;"/>
</svg>

<svg viewBox="0 0 24 24" xmlns="http://www.w3.org/2000/svg" fill-rule="evenodd" clip-rule="evenodd" stroke-linecap="round" stroke-linejoin="round"><path d="M22 4a2 2 0 00-2-2H4a2 2 0 00-2 2v4a2 2 0 002 2h16a2 2 0 002-2V4zM22 16a2 2 0 00-2-2H4a2 2 0 00-2 2v4a2 2 0 002 2h16a2 2 0 002-2v-4zM6 6h.01M6 18h.01" fill="none" stroke="#fff" stroke-width="2"/></svg>
